dist/buttons/news.svg

<svg width="80" height="80" viewBox="0 0 80 80" fill="none" xmlns="http://www.w3.org/2000/svg">
<mask id="path-1-inside-1_207_1603" fill="white">
<path fill-rule="evenodd" clip-rule="evenodd" d="M26 20C22.134 20 19 23.134 19 27V46.9812C19 50.8472 22.134 53.9812 26 53.9812H34.7213L38.3608 59.1876C39.1569 60.3265 40.8431 60.3265 41.6392 59.1876L45.2787 53.9812H54C57.866 53.9812 61 50.8472 61 46.9812V27C61 23.134 57.866 20 54 20H26Z"/>
</mask>
<path d="M34.7213 53.9812L37.9997 51.6895L36.8056 49.9812H34.7213V53.9812ZM38.3608 59.1876L41.6392 56.8959L41.6392 56.8959L38.3608 59.1876ZM41.6392 59.1876L38.3608 56.8959L38.3608 56.8959L41.6392 59.1876ZM45.2787 53.9812V49.9812H43.1944L42.0003 51.6895L45.2787 53.9812ZM23 27C23 25.3431 24.3431 24 26 24V16C19.9249 16 15 20.9249 15 27H23ZM23 46.9812V27H15V46.9812H23ZM26 49.9812C24.3431 49.9812 23 48.638 23 46.9812H15C15 53.0563 19.9249 57.9812 26 57.9812V49.9812ZM34.7213 49.9812H26V57.9812H34.7213V49.9812ZM41.6392 56.8959L37.9997 51.6895L31.4429 56.2729L35.0824 61.4794L41.6392 56.8959ZM38.3608 56.8959C39.1569 55.7571 40.8431 55.7571 41.6392 56.8959L35.0824 61.4794C37.4707 64.8959 42.5293 64.8959 44.9176 61.4794L38.3608 56.8959ZM42.0003 51.6895L38.3608 56.8959L44.9176 61.4794L48.5571 56.2729L42.0003 51.6895ZM54 49.9812H45.2787V57.9812H54V49.9812ZM57 46.9812C57 48.638 55.6569 49.9812 54 49.9812V57.9812C60.0751 57.9812 65 53.0563 65 46.9812H57ZM57 27V46.9812H65V27H57ZM54 24C55.6569 24 57 25.3431 57 27H65C65 20.9249 60.0751 16 54 16V24ZM26 24H54V16H26V24Z" fill="#FA5757" mask="url(#path-1-inside-1_207_1603)"/>
<path d="M23 36.9905H57" stroke="#FA5757" stroke-width="4"/>
<path d="M27 44.5419H40" stroke="#FA5757" stroke-width="4"/>
</svg>

<svg xmlns="http://www.w3.org/2000/svg" width="80" height="80" fill="none"><mask id="a" fill="#fff"><path fill-rule="evenodd" d="M26 20a7 7 0 0 0-7 7v19.981a7 7 0 0 0 7 7h8.721l3.64 5.207a2 2 0 0 0 3.278 0l3.64-5.207H54a7 7 0 0 0 7-7V27a7 7 0 0 0-7-7z" clip-rule="evenodd"/></mask><path fill="#FA5757" d="M34.721 53.981 38 51.69l-1.194-1.709H34.72zm3.64 5.207 3.278-2.292zm3.278 0-3.278-2.292zm3.64-5.207v-4h-2.085L42 51.69zM23 27a3 3 0 0 1 3-3v-8c-6.075 0-11 4.925-11 11zm0 19.981V27h-8v19.981zm3 3a3 3 0 0 1-3-3h-8c0 6.075 4.925 11 11 11zm8.721 0H26v8h8.721zm6.918 6.915L38 51.69l-6.556 4.583 3.64 5.206zm-3.278 0a2 2 0 0 1 3.278 0l-6.557 4.583c2.389 3.417 7.447 3.417 9.836 0zM42 51.69l-3.64 5.206 6.557 4.583 3.64-5.206zm12-1.71h-8.721v8H54zm3-3a3 3 0 0 1-3 3v8c6.075 0 11-4.925 11-11zM57 27v19.981h8V27zm-3-3a3 3 0 0 1 3 3h8c0-6.075-4.925-11-11-11zm-28 0h28v-8H26z" mask="url(#a)"/><path stroke="#FA5757" stroke-width="4" d="M23 36.99h34m-30 7.552h13"/></svg>
